!!!COM:	Martini, Johannes
!!!CDT:	~1440///-~1497//
!!!OTL:	Il est tousjours
!!!AGN:	Song; Chanson
!!!SCT:	Mar3012
!!!SCA:	Mar3012
!!!voices:	3
**kern	**kern	**kern
*staff3	*staff2	*staff1
*Ivox	*Ivox	*Ivox
*I"Contra	*I"Tenor	*I"Cantus
*I'C	*I'T	*I'Cn
*clefGv2	*clefGv2	*clefG2
*k[]	*k[]	*k[]
*M2/1	*M2/1	*M2/1
*met(C|)	*met(C|)	*met(C|)
=1-	=1-	=1-
1.d	0r	0r
4c\	.	.
4B\	.	.
=2	=2	=2
1c	0r	0r
1d	.	.
=3	=3	=3
1G	1.d	0r
2F/	.	.
2G/	4c\	.
.	4B\	.
=4	=4	=4
1A	1c	0r
1G	1d	.
=5	=5	=5
2.B\	1G	1.dd
4c\	.	.
2d\	2F/	.
[2e\	2G/	4cc\
.	.	4b\
=6	=6	=6
2e\]	1A	1cc
4d\	.	.
4c\	.	.
2B\	1G	1dd
[2d\	.	.
=7	=7	=7
4d\]	0r	1g
4c\	.	.
2B\	.	.
2A/	.	2f/
[2G/	.	2g/
=8	=8	=8
2G/]	1r	1a
2F#i/	.	.
2.G/	2.B\	[1g
4A/	4c\	.
=9	=9	=9
2B\	2d\	1g]
1c	1e	.
.	.	1g
4B\	4d\	.
4A/	4c\	.
=10	=10	=10
2G/	2B\	0r
2.B\	2.d\	.
4c\	4c\	.
[2d\	2B\	.
=11	=11	=11
2d\]	2A/	0r
4c\	1G	.
4B\	.	.
1A	.	.
.	2F#i/	.
=12	=12	=12
2r	2.G/	2.b\
1G	.	.
.	4A/	4cc\
.	2B\	2dd\
[2C/	[2c\	[2ee\
=13	=13	=13
2C/]	2c\]	2ee\]
1G	2.d\	4dd\
.	.	4cc\
.	.	2b\
.	4e\	.
[2D/	[2f\	[2dd\
=14	=14	=14
2D/]	4f\]	4dd\]
.	4e\	4cc\
2G/	2d\	2b\
2A/	2c\	2a/
[2G/	[2d\	[2b\
=15	=15	=15
2G/]	4d\]	4b\]
.	4B\	4a/
2C/	2c\	1g
1D	1A	.
.	.	2f#i/
=16	=16	=16
1d	0G	0g
1e	.	.
=17	=17	=17
2d\	1F	0r
2.f\	.	.
.	1D	.
4e\	.	.
[2d\	.	.
=18	=18	=18
2d\]	2G/	1dd
4c#i\	2B\	.
4B\	.	.
1c#i	1A	1ee
=19	=19	=19
1d	1D	2dd\
.	.	2.ff\
1D	1r	.
.	.	4ee\
.	.	[2dd\
=20	=20	=20
2G/	1d	2dd\]
2B\	.	4cc#i\
.	.	4b\
1A	1e	1cc#i
=21	=21	=21
0D	2d\	1dd
.	2.f\	.
.	.	1a
.	4e\	.
.	[2d\	.
=22	=22	=22
1r	2d\]	2f/
.	4c#i\	2g/
.	4B\	.
1A	1c#i	1e
=23	=23	=23
1B	1d	1d
2c\	1A	1r
[2A/	.	.
=24	=24	=24
2A/]	2F/	1d
1d	2G/	.
.	1E	1e
2c\	.	.
=25	=25	=25
2d\	1D	2f/
1B	.	1d
.	1r	.
4A/	.	[2g/
4G/	.	.
=26	=26	=26
1A	1D	2g/]
.	.	2f#i/
1G	1E	2g/
.	.	2b\
=27	=27	=27
2r	2F/	2a/
2A/	1D	1dd
1B	.	.
.	[2G/	4cc\
.	.	4b\
=28	=28	=28
1c	2G/]	1a
.	2F#i/	.
2B\	2G/	1dd
2G/	2B\	.
=29	=29	=29
1.A	2A/	2cc\
.	1c	1ee
[2d\	4B\	4dd\
.	4A/	4cc\
=30	=30	=30
1d]	1G	2.b\
.	.	4a/
1G	1d	1b
=31	=31	=31
2r	2c\	2a/
1C	1e	1cc
2D/	4d\	4b\
.	4c\	4a/
=32	=32	=32
2E/	2B\	2g/
2F/	2A/	1a
1G	1B	.
.	.	2g/
=33	=33	=33
1D	1A	1.a
1d	2F/	.
.	[2G/	[2b\
=34	=34	=34
1e	4G/]	4b\]
.	4F/	4a/
.	2.A/	2.cc\
1c	.	.
.	4G/	4b\
.	4F/	4a/
.	4E/	4g/
=35	=35	=35
0d;	0D;	0f;
=36	=36	=36
1D	1d	0r
1G	1e	.
=37	=37	=37
1F	2f\	0r
.	2e\	.
2G/	2d\	.
2A/	[2f\	.
=38	=38	=38
4B\	2f\]	1d
4A/	.	.
4G/	4e\	.
4F/	4d\	.
1E	2.c#i\	1g
.	4B\	.
=39	=39	=39
1D	1d	1f
2E/	1r	2g/
[2F/	.	2a/
=40	=40	=40
4F/]	1D	4b\
4E/	.	4a/
1D	.	4g/
.	.	4f/
.	1G	1e
2C#i/	.	.
=41	=41	=41
1D	1F	1d
1r	2G/	2e/
.	2A/	[2f/
=42	=42	=42
1d	4B\	2f/]
.	4A/	.
.	4G/	1d
.	4F/	.
1e	1E	.
.	.	2c#i/
=43	=43	=43
2f\	1D	1d
2e\	.	.
2d\	[1d	1r
[2f\	.	.
=44	=44	=44
2f\]	2d\]	1dd
4e\	4c\	.
4d\	4B\	.
2.c#i\	1A	1ee
4B\	.	.
=45	=45	=45
1d	0d	2ff\
.	.	2ee\
1B	.	2dd\
.	.	[2ff\
=46	=46	=46
0A	0e	2ff\]
.	.	4ee\
.	.	4dd\
.	.	2.cc#i\
.	.	4b\
=47	=47	=47
1D	0d	2.dd\
.	.	4cc\
1r	.	2a/
.	.	[2b\
=48	=48	=48
1G	0r	4b\]
.	.	4a/
.	.	1g
1A	.	.
.	.	4f/
.	.	4e/
=49	=49	=49
2B\	1G	4d/
.	.	4e/
1d	.	4f/
.	.	4g/
.	1A	1e
2c\	.	.
=50	=50	=50
2d\	2B\	1d
2B\	1d	.
1A	.	1r
.	2c\	.
=51	=51	=51
1G	2d\	1g
.	2B\	.
1c	1A	1a
=52	=52	=52
1d	2G/	2b\
.	2F/	1dd
1e	2G/	.
.	2E/	2cc\
=53	=53	=53
2f\	2D/	2dd\
2d\	1G	2b\
1d	.	1a
.	2F#i/	.
=54	=54	=54
2r	2G/	2g/
2D/	2A/	2f/
2G/	2B\	2g/
2A/	2c\	2e/
=55	=55	=55
2D/	2d\	2d/
2C/	2e\	1g
1D	1d	.
.	.	2f#i/
=56	=56	=56
1d	1G	2g/
.	.	1dd
1e	2r	.
.	2A/	2cc\
=57	=57	=57
1d	2B\	4dd\
.	.	4cc\
.	1d	4b\
.	.	4a/
1D	.	2b\
.	4c\	[2a/
.	4B\	.
=58	=58	=58
1E	4c\	4a/]
.	4B\	4g/
.	4A/	1g
.	4G/	.
1D	1A	.
.	.	2f#i/
=59	=59	=59
0dl	0Gl	0gl
==	==	==
*-	*-	*-
!!!RDF**kern: l=long note in original notation
!!!RDF**kern: i=editorial accidental
!!!ENC:	Chris Gage 11-06-2014
!!!END:	2015/03/01/
!!!EED:	Jesse Rodin
!!!EEV:	2015/03/05/
!!!ONB:	Translated from MusicXML and edited on 2015/03/05/ by Craig Sapp
!!muse2ps: C^@{COM}^i2I150v85,85,150Q16
